X: 29872
T: O'Keefe's
R: slide
M: 12/8
K: Dmajor
dcB|:A2F A2d f3 f3|gfe fed B3 B2A|
Bcd B2A Bcd B2A|1 Bcd efe d3 dcB:|2 Bcd efe d3 d2f||
|:a3 a2f e2A cBA|efe cBA e2A cBA|
a3 a2f e2A cBA|1 efe B2c d3 d2f:|2 efe B2c d3||

